public/flags/MZ.svg

<svg fill="none" height="53" viewBox="0 0 65 53" width="65" xmlns="http://www.w3.org/2000/svg" xmlns:xlink="http://www.w3.org/1999/xlink"><mask id="a" height="43" maskUnits="userSpaceOnUse" width="59" x="6" y="3"><rect fill="#fff" height="42.5" rx="4.24286" width="59" x="6" y="3"/></mask><rect fill="#fff" height="42.5" rx="4.24286" width="59" x="6" y="3"/><g clip-rule="evenodd" fill-rule="evenodd" mask="url(#a)"><path d="m6 45.5h59v-11.3334h-59z" fill="#ffe547"/><path d="m6 14.3333h59v-11.3333h-59z" fill="#118c81"/><path d="m6 34.1666h59v-19.8333h-59z" fill="#fff"/><path d="m6 31.3334h59v-14.1667h-59z" fill="#262626"/><path d="m6 3 28.0952 21.25-28.0952 21.25z" fill="#ef2147"/><path d="m15.8334 26.9574-4.1285 3.0232 1.5752-4.8939-4.12676-3.0255 5.10206-.0015 1.578-4.893 1.578 4.893 5.102.0015-4.1267 3.0255 1.5752 4.8939z" fill="#fde444"/></g></svg>

<svg width="65" height="53" viewBox="0 0 65 53" fill="none" xmlns="http://www.w3.org/2000/svg">
<rect x="6" y="3" width="59" height="42.5" rx="4.24286" fill="white"/>
<mask id="mask0" mask-type="alpha" maskUnits="userSpaceOnUse" x="6" y="3" width="59" height="43">
<rect x="6" y="3" width="59" height="42.5" rx="4.24286" fill="white"/>
</mask>
<g mask="url(#mask0)">
<path fill-rule="evenodd" clip-rule="evenodd" d="M6 45.5H65V34.1666H6V45.5Z" fill="#FFE547"/>
<path fill-rule="evenodd" clip-rule="evenodd" d="M6 14.3333H65V3H6V14.3333Z" fill="#118C81"/>
<path fill-rule="evenodd" clip-rule="evenodd" d="M6 34.1666H65V14.3333H6V34.1666Z" fill="white"/>
<path fill-rule="evenodd" clip-rule="evenodd" d="M6 31.3334H65V17.1667H6V31.3334Z" fill="#262626"/>
<path fill-rule="evenodd" clip-rule="evenodd" d="M6 3L34.0952 24.25L6 45.5V3Z" fill="#EF2147"/>
<path fill-rule="evenodd" clip-rule="evenodd" d="M15.8334 26.9574L11.7049 29.9806L13.2801 25.0867L9.15334 22.0612L14.2554 22.0597L15.8334 17.1667L17.4114 22.0597L22.5134 22.0612L18.3867 25.0867L19.9619 29.9806L15.8334 26.9574Z" fill="#FDE444"/>
</g>
</svg>
